!!!OTL: Yueguang ge
!!!ARE: Asia, China,ÿGuangdong, Chaozhou
!! II, 422
!!!SCT: C1522
!!!YEM: Copyright 1995, estate of Helmut Schaffrath.
**kern
*ICvox
*Ivox
*M2/4
*k[f#]
*G:
{4ee
4dd
=1
4a
4dd
=2
8ee
4.dd}
=3
{8dd
8b
8dd
8cc
=4
8b
8a
4g
=5
4b
8g
8e
=6
2dd}
=7
{4dd
4a
=8
8a
4.ee
=9
8.cc
16b
8a
8b
=10
4dd}
{8b
8g
=11
8b
8a
4g
=12
8dd
8dd
8a
8b
=13
2dd}
==
!!!AGN: Xiaodiao, Erge
!!!AMT: simple duple
!!!AIN: vox
!!!EED: Helmut Schaffrath
!!!EEV: 1.0
*-
